!!!OTL: The Lass of Livingston 
!!!id: HA023
**kern
*clefF4
*k[b-]
*C:
*M2/2
{8B-
8c
=1
4.e
8f
4g
4cc
=2
8b-
8g
8b
8cc
8b-
8g}
{8f
8e
=3
4g
4f
4f
8e
8f
=4
4g
4f
4f}
{8e
8c
=5
8B-
8c
8e
8f
4.g
8cc
=6
16b-
8.g
8f
8e
4f}
{8g
8b
=7
4cc
4c
4c
8B-
8c
=8
4e
4c
4c}
{8b-
8cc
=9
4.ee
8ff
8ee
8ff
8gg
8ff
=10
8ee
8b-
8cc
8ee
8b-
8g}
{8f
8e
=11
4g
4f
4f
8e
8f
=12
4g
4f
4f}
{8ee
8ff
=13
8gg
8ee
8ff
8gg
8ee
8b-
8cc
8ee
=14
8b-
8g
8f
8e
8f
8g}
{8a
8b-
=15
4cc
4c
4c
8B-
8c
=16
4e
4c
4c}
==
*-
!!!minrhy: 16
!!!meter: 2/2 
!!!cut: The Lass of Livingston 
!!!key: HA023  16  c 2/2 
!!!bem: Vorschlge
!!!fog: a--b--c--d--aw-b--e--f--
!! Haydn: Volksliedbearbeitungen, Bd1
